X:107
T:Woodlands. LIT.107
M:3/4
Q:1/4=130
L:1/8
B:Wm. Litten MS, 1802
Z:Village Music Project 2017 Anne Wride
K:C
G2 | c2 ed ed | c2c2d2 | e2 gf gf | e4 ze/f/ | g2 ag ag | fg azf2 | e2 gf gf | {e}d4 :|
e2 | d2 de de | f2f2gf | {f}e2 eg ag | g4 e2 | dB/d/ c2f2 | ed/e/ d2c'g | f2e2 g/f/e/d/ | {d}c4g2 |
a2Hf2zf | e2de fg | c'/a/g/f/ e2d2 | c4 |]

